icons/ejs.svg

<!--
  - The MIT License (MIT)
  -
  - Copyright (c) 2015-2024 Elior "Mallowigi" Boukhobza
  -
  - Permission is hereby granted, free of charge, to any person obtaining a copy
  - of this software and associated documentation files (the "Software"), to deal
  - in the Software without restriction, including without limitation the rights
  - to use, copy, modify, merge, publish, distribute, sublicense, and/or sell
  - copies of the Software, and to permit persons to whom the Software is
  - furnished to do so, subject to the following conditions:
  -
  - The above copyright notice and this permission notice shall be included in all
  - copies or substantial portions of the Software.
  -
  - THE SOFTWARE IS PROVIDED "AS IS", WITHOUT WARRANTY OF ANY KIND, EXPRESS OR
  - IMPLIED, INCLUDING BUT NOT LIMITED TO THE WARRANTIES OF MERCHANTABILITY,
  - FITNESS FOR A PARTICULAR PURPOSE AND NONINFRINGEMENT. IN NO EVENT SHALL THE
  - AUTHORS OR COPYRIGHT HOLDERS BE LIABLE FOR ANY CLAIM, DAMAGES OR OTHER
  - LIABILITY, WHETHER IN AN ACTION OF CONTRACT, TORT OR OTHERWISE, ARISING FROM,
  - OUT OF OR IN CONNECTION WITH THE SOFTWARE OR THE USE OR OTHER DEALINGS IN THE
  - SOFTWARE.
  -
  -->

<svg version="1.1" xmlns="http://www.w3.org/2000/svg" x="0px" y="0px" width="16px" height="16px"
     viewBox="0 0 512 512">
  <path fill="#7A8387" data-iconColor="EJS"
        d="M189.3493042,120.4835815v58.8653259L64.5898361,236.4528351l124.7594681,59.1477203v57.6854858L0,263.4552307v-52.5425415L189.3493042,120.4835815z M318.1947327,173.7742462c0-15.0402374-13.82901-24.4914246-24.832489-16.9712982c-11.0034485,7.5201111-11.0034485,26.4225006,0,33.9426117C304.3657227,198.265686,318.1947327,188.8144989,318.1947327,173.7742462z M273.0758362,219.9854126c-37.3124695-20.4545593-37.3124847-71.8686066-0.0000305-92.3231583c37.3125-20.454567,84.2062988,5.252449,84.2062988,46.1615677S310.3883057,240.4399567,273.0758362,219.9854126z M472.9125977,339.9120789c0-15.0402527-13.82901-24.4914246-24.8324585-16.9713135c-11.003479,7.5201416-11.0034485,26.4225159,0,33.942627C459.0836182,364.4035034,472.9125977,354.9523315,472.9125977,339.9120789z M427.7937012,386.12323c-37.3124695-20.4545593-37.3124695-71.8685913,0-92.3231506S512,299.0525513,512,339.9616699S465.1061707,406.5777893,427.7937012,386.12323z M313.1390686,393.3019104l194.40979-274.6038208h-66.4275208L243.4711914,393.3019104H313.1390686z"/>
</svg>

<svg xmlns="http://www.w3.org/2000/svg" viewBox="0 0 512 512"><path fill="#7a8387" d="M189.35 120.484v58.865L64.59 236.453 189.35 295.6v57.685L0 263.456v-52.543zm128.845 53.29c0-15.04-13.83-24.491-24.833-16.971s-11.003 26.422 0 33.943 24.833-1.932 24.833-16.972m-45.12 46.211c-37.312-20.454-37.312-71.868 0-92.323 37.313-20.454 84.207 5.253 84.207 46.162s-46.894 66.616-84.206 46.161m199.838 119.927c0-15.04-13.83-24.491-24.833-16.971s-11.003 26.422 0 33.942 24.833-1.93 24.833-16.97m-45.12 46.211c-37.312-20.454-37.312-71.868 0-92.323S512 299.053 512 339.962s-46.894 66.616-84.206 46.161m-114.654 7.179 194.41-274.604h-66.43L243.47 393.302z" data-iconColor="EJS"/></svg>
